; G-Code generated by Simplify3D(R) Version 4.0.0
; Jun 10, 2020 at 5:01:00 PM
; Settings Summary
;   processName,Process1
;   applyToModels,Electronics_holder
;   profileName,0.6mm (modified)
;   profileVersion,2020-05-28 20:54:20
;   baseProfile,Default (modified)
;   printMaterial,PLA
;   printQuality,Medium
;   printExtruders,
;   extruderName,Primary Extruder
;   extruderToolheadNumber,0
;   extruderDiameter,0.6
;   extruderAutoWidth,0
;   extruderWidth,0.68
;   extrusionMultiplier,1
;   extruderUseRetract,1
;   extruderRetractionDistance,5
;   extruderExtraRestartDistance,0
;   extruderRetractionZLift,0
;   extruderRetractionSpeed,1800
;   extruderUseCoasting,0
;   extruderCoastingDistance,0.2
;   extruderUseWipe,0
;   extruderWipeDistance,5
;   primaryExtruder,0
;   layerHeight,0.2
;   topSolidLayers,4
;   bottomSolidLayers,3
;   perimeterOutlines,3
;   printPerimetersInsideOut,1
;   startPointOption,2
;   startPointOriginX,0
;   startPointOriginY,0
;   sequentialIslands,0
;   spiralVaseMode,0
;   firstLayerHeightPercentage,80
;   firstLayerWidthPercentage,100
;   firstLayerUnderspeed,0.5
;   useRaft,0
;   raftExtruder,0
;   raftTopLayers,2
;   raftBaseLayers,0
;   raftOffset,10
;   raftSeparationDistance,0
;   raftTopInfill,100
;   aboveRaftSpeedMultiplier,0.3
;   useSkirt,0
;   skirtExtruder,0
;   skirtLayers,1
;   skirtOutlines,2
;   skirtOffset,4
;   usePrimePillar,0
;   primePillarExtruder,999
;   primePillarWidth,12
;   primePillarLocation,7
;   primePillarSpeedMultiplier,1
;   useOozeShield,0
;   oozeShieldExtruder,999
;   oozeShieldOffset,2
;   oozeShieldOutlines,1
;   oozeShieldSidewallShape,1
;   oozeShieldSidewallAngle,30
;   oozeShieldSpeedMultiplier,1
;   infillExtruder,0
;   internalInfillPattern,Fast Honeycomb
;   externalInfillPattern,Rectilinear
;   infillPercentage,15
;   outlineOverlapPercentage,15
;   infillExtrusionWidthPercentage,100
;   minInfillLength,5
;   infillLayerInterval,1
;   internalInfillAngles,0
;   overlapInternalInfillAngles,0
;   externalInfillAngles,45,-45
;   generateSupport,1
;   supportExtruder,0
;   supportInfillPercentage,50
;   supportExtraInflation,0
;   supportBaseLayers,0
;   denseSupportExtruder,0
;   denseSupportLayers,0
;   denseSupportInfillPercentage,70
;   supportLayerInterval,1
;   supportHorizontalPartOffset,0.3
;   supportUpperSeparationLayers,1
;   supportLowerSeparationLayers,1
;   supportType,1
;   supportGridSpacing,4
;   maxOverhangAngle,45
;   supportAngles,90
;   temperatureName,Primary Extruder,Bed
;   temperatureNumber,0,0
;   temperatureSetpointCount,1,1
;   temperatureSetpointLayers,1,1
;   temperatureSetpointTemperatures,215,60
;   temperatureStabilizeAtStartup,1,1
;   temperatureHeatedBed,0,1
;   temperatureRelayBetweenLayers,0,0
;   temperatureRelayBetweenLoops,0,0
;   fanLayers,1,2
;   fanSpeeds,0,100
;   blipFanToFullPower,0
;   adjustSpeedForCooling,1
;   minSpeedLayerTime,15
;   minCoolingSpeedSlowdown,20
;   increaseFanForCooling,0
;   minFanLayerTime,45
;   maxCoolingFanSpeed,100
;   increaseFanForBridging,0
;   bridgingFanSpeed,100
;   use5D,1
;   relativeEdistances,0
;   allowEaxisZeroing,1
;   independentExtruderAxes,0
;   includeM10123,0
;   stickySupport,1
;   applyToolheadOffsets,0
;   gcodeXoffset,0
;   gcodeYoffset,0
;   gcodeZoffset,0
;   overrideMachineDefinition,0
;   machineTypeOverride,0
;   strokeXoverride,200
;   strokeYoverride,200
;   strokeZoverride,200
;   originOffsetXoverride,0
;   originOffsetYoverride,0
;   originOffsetZoverride,0
;   homeXdirOverride,-1
;   homeYdirOverride,-1
;   homeZdirOverride,-1
;   flipXoverride,1
;   flipYoverride,-1
;   flipZoverride,1
;   toolheadOffsets,0,0|0,0|0,0|0,0|0,0|0,0
;   overrideFirmwareConfiguration,0
;   firmwareTypeOverride,RepRap (Marlin/Repetier/Sprinter)
;   GPXconfigOverride,r2
;   baudRateOverride,115200
;   overridePrinterModels,0
;   printerModelsOverride
;   startingGcode,G28 ; home all axes
;   layerChangeGcode,
;   retractionGcode,
;   toolChangeGcode,
;   endingGcode,G91;,G1 X5 Y5 Z2 -E20;,M104 S0 ; turn off extruder,M140 S0 ; turn off bed,M84 ; disable motors,M107; disable fan
;   exportFileFormat,gcode
;   celebration,0
;   celebrationSong,Random Song
;   postProcessing,
;   defaultSpeed,3600
;   outlineUnderspeed,0.5
;   solidInfillUnderspeed,0.8
;   supportUnderspeed,0.8
;   rapidXYspeed,4800
;   rapidZspeed,1000
;   minBridgingArea,50
;   bridgingExtraInflation,0
;   bridgingExtrusionMultiplier,1
;   bridgingSpeedMultiplier,1
;   useFixedBridgingAngle,0
;   fixedBridgingAngle,0
;   applyBridgingToPerimeters,0
;   filamentDiameters,1.75|1.75|1.75|1.75|1.75|1.75
;   filamentPricesPerKg,46|46|46|46|46|46
;   filamentDensities,1.25|1.25|1.25|1.25|1.25|1.25
;   useMinPrintHeight,0
;   minPrintHeight,0
;   useMaxPrintHeight,0
;   maxPrintHeight,0
;   useDiaphragm,0
;   diaphragmLayerInterval,20
;   robustSlicing,1
;   mergeAllIntoSolid,0
;   onlyRetractWhenCrossingOutline,1
;   retractBetweenLayers,1
;   useRetractionMinTravel,0
;   retractionMinTravel,3
;   retractWhileWiping,0
;   onlyWipeOutlines,1
;   avoidCrossingOutline,0
;   maxMovementDetourFactor,3
;   toolChangeRetractionDistance,12
;   toolChangeExtraRestartDistance,-0.5
;   toolChangeRetractionSpeed,600
;   externalThinWallType,0
;   internalThinWallType,2
;   thinWallAllowedOverlapPercentage,10
;   singleExtrusionMinLength,1
;   singleExtrusionMinPrintingWidthPercentage,50
;   singleExtrusionMaxPrintingWidthPercentage,200
;   singleExtrusionEndpointExtension,0.2
;   horizontalSizeCompensation,0
G90
M82
M106 S0
M140 S60
M190 S60
M104 S215 T0
M109 S215 T0
G28 ; home all axes
G92 E0
G1 E-5.0000 F1800
G1 Z0.160 F1000
; process Process1
; layer 1, Z = 0.160
T0
; tool H0.200 W0.680
; inner perimeter
G1 X41.700 Y32.200 F4800
G1 E0.0000 F540
G92 E0
G1 X198.300 Y32.200 E8.8545 F1350
G1 X198.300 Y98.800 E12.6202
G1 X148.300 Y98.800 E15.4473
G1 X148.300 Y187.800 E20.4796
G1 X91.700 Y187.800 E23.6799
G1 X91.700 Y98.800 E28.7121
G1 X86.812 Y98.800 E28.9885
G1 X86.640 Y98.471 E29.0095
G1 X86.757 Y98.303 E29.0211
G1 X86.949 Y97.891 E29.0468
G1 X87.067 Y97.453 E29.0725
G1 X87.106 Y97.000 E29.0982
G1 X87.067 Y96.547 E29.1239
G1 X86.949 Y96.108 E29.1495
G1 X86.757 Y95.697 E29.1752
G1 X86.497 Y95.325 E29.2009
G1 X86.175 Y95.003 E29.2266
G1 X85.803 Y94.743 E29.2523
G1 X85.392 Y94.551 E29.2780
G1 X84.953 Y94.433 E29.3037
G1 X84.500 Y94.394 E29.3294
G1 X84.047 Y94.433 E29.3551
G1 X83.608 Y94.551 E29.3808
G1 X83.197 Y94.743 E29.4064
G1 X82.825 Y95.003 E29.4321
G1 X82.503 Y95.325 E29.4578
G1 X82.243 Y95.697 E29.4835
G1 X82.051 Y96.109 E29.5092
G1 X81.933 Y96.547 E29.5349
G1 X81.893 Y97.004 E29.5608
G1 X81.935 Y97.461 E29.5868
G1 X82.051 Y97.892 E29.6120
G1 X82.243 Y98.303 E29.6376
G1 X82.360 Y98.471 E29.6492
G1 X82.188 Y98.800 E29.6702
G1 X41.700 Y98.800 E31.9595
G1 X41.700 Y32.200 E35.7252
G1 X41.020 Y31.520 F4800
G92 E0
G1 X198.980 Y31.520 E8.9314 F1350
G1 X198.980 Y99.480 E12.7740
G1 X148.980 Y99.480 E15.6011
G1 X148.980 Y188.480 E20.6334
G1 X91.020 Y188.480 E23.9106
G1 X91.020 Y99.480 E28.9428
G1 X84.705 Y99.480 E29.2999
G1 X84.635 Y98.948 E29.3302
G1 X85.158 Y98.808 E29.3608
G1 X85.462 Y98.666 E29.3798
G1 X85.737 Y98.474 E29.3987
G1 X85.974 Y98.237 E29.4177
G1 X86.166 Y97.962 E29.4367
G1 X86.308 Y97.658 E29.4556
G1 X86.395 Y97.334 E29.4746
G1 X86.424 Y97.000 E29.4935
G1 X86.395 Y96.666 E29.5125
G1 X86.308 Y96.342 E29.5315
G1 X86.166 Y96.038 E29.5504
G1 X85.974 Y95.763 E29.5694
G1 X85.737 Y95.526 E29.5883
G1 X85.462 Y95.334 E29.6073
G1 X85.158 Y95.192 E29.6263
G1 X84.834 Y95.105 E29.6452
G1 X84.500 Y95.076 E29.6642
G1 X84.166 Y95.105 E29.6832
G1 X83.842 Y95.192 E29.7021
G1 X83.538 Y95.334 E29.7211
G1 X83.263 Y95.526 E29.7400
G1 X83.026 Y95.763 E29.7590
G1 X82.834 Y96.038 E29.7780
G1 X82.692 Y96.342 E29.7969
G1 X82.605 Y96.666 E29.8159
G1 X82.576 Y97.003 E29.8350
G1 X82.607 Y97.341 E29.8542
G1 X82.692 Y97.658 E29.8728
G1 X82.834 Y97.962 E29.8917
G1 X83.026 Y98.237 E29.9107
G1 X83.263 Y98.474 E29.9297
G1 X83.538 Y98.666 E29.9486
G1 X83.842 Y98.808 E29.9676
G1 X84.365 Y98.948 E29.9982
G1 X84.294 Y99.480 E30.0285
G1 X41.020 Y99.480 E32.4754
G1 X41.020 Y31.520 E36.3180
; outer perimeter
G1 X40.340 Y30.840 F4800
G92 E0
G1 X199.660 Y30.840 E9.0083 F900
G1 X199.660 Y100.160 E12.9278
G1 X149.660 Y100.160 E15.7549
G1 X149.660 Y189.160 E20.7872
G1 X90.340 Y189.160 E24.1413
G1 X90.340 Y100.160 E29.1735
G1 X40.340 Y100.160 E32.0006
G1 X40.340 Y30.840 E35.9201
; inner perimeter
G1 X82.051 Y47.109 F4800
G92 E0
G1 X81.933 Y47.547 E0.0257 F1350
G1 X81.893 Y48.004 E0.0516
G1 X81.935 Y48.461 E0.0776
G1 X82.051 Y48.892 E0.1028
G1 X82.243 Y49.303 E0.1284
G1 X82.503 Y49.675 E0.1541
G1 X82.825 Y49.997 E0.1798
G1 X83.197 Y50.257 E0.2055
G1 X83.608 Y50.449 E0.2312
G1 X84.047 Y50.567 E0.2569
G1 X84.500 Y50.606 E0.2826
G1 X84.953 Y50.567 E0.3083
G1 X85.392 Y50.449 E0.3340
G1 X85.803 Y50.257 E0.3596
G1 X86.175 Y49.997 E0.3853
G1 X86.497 Y49.675 E0.4110
G1 X86.757 Y49.303 E0.4367
G1 X86.949 Y48.892 E0.4624
G1 X87.067 Y48.453 E0.4881
G1 X87.106 Y48.000 E0.5138
G1 X87.067 Y47.547 E0.5395
G1 X86.949 Y47.108 E0.5652
G1 X86.757 Y46.697 E0.5909
G1 X86.497 Y46.325 E0.6165
G1 X86.175 Y46.003 E0.6422
G1 X85.803 Y45.743 E0.6679
G1 X85.392 Y45.551 E0.6936
G1 X84.953 Y45.433 E0.7193
G1 X84.500 Y45.394 E0.7450
G1 X84.047 Y45.433 E0.7707
G1 X83.608 Y45.551 E0.7964
G1 X83.197 Y45.743 E0.8221
G1 X82.825 Y46.003 E0.8477
G1 X82.503 Y46.325 E0.8734
G1 X82.243 Y46.697 E0.8991
G1 X82.051 Y47.109 E0.9248
G1 X82.692 Y47.342 F4800
G92 E0
G1 X82.605 Y47.666 E0.0190 F1350
G1 X82.576 Y48.003 E0.0381
G1 X82.607 Y48.341 E0.0573
G1 X82.692 Y48.658 E0.0758
G1 X82.834 Y48.962 E0.0948
G1 X83.026 Y49.237 E0.1138
G1 X83.263 Y49.474 E0.1327
G1 X83.538 Y49.666 E0.1517
G1 X83.842 Y49.808 E0.1707
G1 X84.166 Y49.895 E0.1896
G1 X84.500 Y49.924 E0.2086
G1 X84.834 Y49.895 E0.2275
G1 X85.158 Y49.808 E0.2465
G1 X85.462 Y49.666 E0.2655
G1 X85.737 Y49.474 E0.2844
G1 X85.974 Y49.237 E0.3034
G1 X86.166 Y48.962 E0.3223
G1 X86.308 Y48.658 E0.3413
G1 X86.395 Y48.334 E0.3603
G1 X86.424 Y48.000 E0.3792
G1 X86.395 Y47.666 E0.3982
G1 X86.308 Y47.342 E0.4172
G1 X86.166 Y47.038 E0.4361
G1 X85.974 Y46.763 E0.4551
G1 X85.737 Y46.526 E0.4740
G1 X85.462 Y46.334 E0.4930
G1 X85.158 Y46.192 E0.5120
G1 X84.834 Y46.105 E0.5309
G1 X84.500 Y46.076 E0.5499
G1 X84.166 Y46.105 E0.5689
G1 X83.842 Y46.192 E0.5878
G1 X83.538 Y46.334 E0.6068
G1 X83.263 Y46.526 E0.6257
G1 X83.026 Y46.763 E0.6447
G1 X82.834 Y47.038 E0.6637
G1 X82.692 Y47.342 E0.6826
; outer perimeter
G1 X83.334 Y47.575 F4800
G92 E0
G1 X83.278 Y47.784 E0.0122 F900
G1 X83.259 Y48.001 E0.0245
G1 X83.279 Y48.221 E0.0370
G1 X83.334 Y48.425 E0.0489
G1 X83.425 Y48.621 E0.0612
G1 X83.549 Y48.798 E0.0734
G1 X83.702 Y48.951 E0.0856
G1 X83.879 Y49.075 E0.0979
G1 X84.075 Y49.166 E0.1101
G1 X84.284 Y49.222 E0.1223
G1 X84.500 Y49.241 E0.1346
G1 X84.716 Y49.222 E0.1468
G1 X84.925 Y49.166 E0.1590
G1 X85.121 Y49.075 E0.1713
G1 X85.298 Y48.951 E0.1835
G1 X85.451 Y48.798 E0.1957
G1 X85.575 Y48.621 E0.2080
G1 X85.666 Y48.425 E0.2202
G1 X85.722 Y48.216 E0.2324
G1 X85.741 Y48.000 E0.2447
G1 X85.722 Y47.784 E0.2569
G1 X85.666 Y47.575 E0.2691
G1 X85.575 Y47.379 E0.2814
G1 X85.451 Y47.202 E0.2936
G1 X85.298 Y47.049 E0.3059
G1 X85.121 Y46.925 E0.3181
G1 X84.925 Y46.834 E0.3303
G1 X84.716 Y46.778 E0.3426
G1 X84.500 Y46.759 E0.3548
G1 X84.284 Y46.778 E0.3670
G1 X84.075 Y46.834 E0.3793
G1 X83.879 Y46.925 E0.3915
G1 X83.702 Y47.049 E0.4037
G1 X83.549 Y47.202 E0.4160
G1 X83.425 Y47.379 E0.4282
G1 X83.334 Y47.575 E0.4404
G1 X84.500 Y95.759 F4800
G92 E0
G1 X84.284 Y95.778 E0.0122 F900
G1 X84.075 Y95.834 E0.0245
G1 X83.879 Y95.925 E0.0367
G1 X83.702 Y96.049 E0.0489
G1 X83.549 Y96.202 E0.0612
G1 X83.425 Y96.379 E0.0734
G1 X83.334 Y96.575 E0.0856
G1 X83.278 Y96.784 E0.0979
G1 X83.259 Y97.001 E0.1102
G1 X83.279 Y97.221 E0.1227
G1 X83.334 Y97.425 E0.1346
G1 X83.425 Y97.621 E0.1468
G1 X83.549 Y97.798 E0.1590
G1 X83.702 Y97.951 E0.1713
G1 X83.879 Y98.075 E0.1835
G1 X84.075 Y98.166 E0.1957
G1 X84.284 Y98.222 E0.2080
G1 X84.500 Y98.241 E0.2202
G1 X84.716 Y98.222 E0.2324
G1 X84.925 Y98.166 E0.2447
G1 X85.121 Y98.075 E0.2569
G1 X85.298 Y97.951 E0.2691
G1 X85.451 Y97.798 E0.2814
G1 X85.575 Y97.621 E0.2936
G1 X85.666 Y97.425 E0.3059
G1 X85.722 Y97.216 E0.3181
G1 X85.741 Y97.000 E0.3303
G1 X85.722 Y96.784 E0.3426
G1 X85.666 Y96.575 E0.3548
G1 X85.575 Y96.379 E0.3670
G1 X85.451 Y96.202 E0.3793
G1 X85.298 Y96.049 E0.3915
G1 X85.121 Y95.925 E0.4037
G1 X84.925 Y95.834 E0.4160
G1 X84.716 Y95.778 E0.4282
G1 X84.500 Y95.759 E0.4404
; inner perimeter
G1 X139.893 Y97.004 F4800
G92 E0
G1 X139.935 Y97.461 E0.0260 F1350
G1 X140.051 Y97.891 E0.0511
G1 X140.243 Y98.303 E0.0768
G1 X140.503 Y98.675 E0.1025
G1 X140.825 Y98.997 E0.1282
G1 X141.197 Y99.257 E0.1539
G1 X141.608 Y99.449 E0.1796
G1 X142.047 Y99.567 E0.2053
G1 X142.500 Y99.606 E0.2310
G1 X142.953 Y99.567 E0.2566
G1 X143.391 Y99.449 E0.2823
G1 X143.803 Y99.257 E0.3080
G1 X144.175 Y98.997 E0.3337
G1 X144.497 Y98.675 E0.3594
G1 X144.757 Y98.303 E0.3851
G1 X144.949 Y97.892 E0.4108
G1 X145.067 Y97.453 E0.4365
G1 X145.106 Y97.000 E0.4622
G1 X145.067 Y96.547 E0.4879
G1 X144.949 Y96.108 E0.5135
G1 X144.757 Y95.697 E0.5392
G1 X144.497 Y95.325 E0.5649
G1 X144.175 Y95.003 E0.5906
G1 X143.803 Y94.743 E0.6163
G1 X143.391 Y94.551 E0.6420
G1 X142.953 Y94.433 E0.6677
G1 X142.500 Y94.394 E0.6934
G1 X142.047 Y94.433 E0.7190
G1 X141.608 Y94.551 E0.7447
G1 X141.197 Y94.743 E0.7704
G1 X140.825 Y95.003 E0.7961
G1 X140.503 Y95.325 E0.8218
G1 X140.243 Y95.697 E0.8475
G1 X140.051 Y96.108 E0.8732
G1 X139.933 Y96.547 E0.8989
G1 X139.893 Y97.004 E0.9248
G1 X140.576 Y97.003 F4800
G92 E0
G1 X140.607 Y97.341 E0.0192 F1350
G1 X140.692 Y97.658 E0.0378
G1 X140.834 Y97.962 E0.0567
G1 X141.026 Y98.237 E0.0757
G1 X141.263 Y98.474 E0.0947
G1 X141.538 Y98.666 E0.1136
G1 X141.842 Y98.808 E0.1326
G1 X142.166 Y98.895 E0.1515
G1 X142.500 Y98.924 E0.1705
G1 X142.834 Y98.895 E0.1895
G1 X143.158 Y98.808 E0.2084
G1 X143.462 Y98.666 E0.2274
G1 X143.737 Y98.474 E0.2463
G1 X143.974 Y98.237 E0.2653
G1 X144.166 Y97.962 E0.2843
G1 X144.308 Y97.658 E0.3032
G1 X144.395 Y97.334 E0.3222
G1 X144.424 Y97.000 E0.3412
G1 X144.395 Y96.666 E0.3601
G1 X144.308 Y96.342 E0.3791
G1 X144.166 Y96.038 E0.3980
G1 X143.974 Y95.763 E0.4170
G1 X143.737 Y95.526 E0.4360
G1 X143.462 Y95.334 E0.4549
G1 X143.158 Y95.192 E0.4739
G1 X142.834 Y95.105 E0.4929
G1 X142.500 Y95.076 E0.5118
G1 X142.166 Y95.105 E0.5308
G1 X141.842 Y95.192 E0.5497
G1 X141.538 Y95.334 E0.5687
G1 X141.263 Y95.526 E0.5877
G1 X141.026 Y95.763 E0.6066
G1 X140.834 Y96.038 E0.6256
G1 X140.692 Y96.342 E0.6445
G1 X140.605 Y96.666 E0.6635
G1 X140.576 Y97.003 E0.6826
; outer perimeter
G1 X141.259 Y97.001 F4800
G92 E0
G1 X141.279 Y97.221 E0.0125 F900
G1 X141.334 Y97.425 E0.0244
G1 X141.425 Y97.621 E0.0366
G1 X141.549 Y97.798 E0.0489
G1 X141.702 Y97.951 E0.0611
G1 X141.879 Y98.075 E0.0734
G1 X142.075 Y98.166 E0.0856
G1 X142.284 Y98.222 E0.0978
G1 X142.500 Y98.241 E0.1101
G1 X142.716 Y98.222 E0.1223
G1 X142.925 Y98.166 E0.1345
G1 X143.121 Y98.075 E0.1468
G1 X143.298 Y97.951 E0.1590
G1 X143.451 Y97.798 E0.1712
G1 X143.575 Y97.621 E0.1835
G1 X143.666 Y97.425 E0.1957
G1 X143.722 Y97.216 E0.2079
G1 X143.741 Y97.000 E0.2202
G1 X143.722 Y96.784 E0.2324
G1 X143.666 Y96.575 E0.2446
G1 X143.575 Y96.379 E0.2569
G1 X143.451 Y96.202 E0.2691
G1 X143.298 Y96.049 E0.2813
G1 X143.121 Y95.925 E0.2936
G1 X142.925 Y95.834 E0.3058
G1 X142.716 Y95.778 E0.3180
G1 X142.500 Y95.759 E0.3303
G1 X142.284 Y95.778 E0.3425
G1 X142.075 Y95.834 E0.3547
G1 X141.879 Y95.925 E0.3670
G1 X141.702 Y96.049 E0.3792
G1 X141.549 Y96.202 E0.3914
G1 X141.425 Y96.379 E0.4037
G1 X141.334 Y96.575 E0.4159
G1 X141.278 Y96.784 E0.4281
G1 X141.259 Y97.001 E0.4404
; inner perimeter
G1 X142.500 Y50.606 F4800
G92 E0
G1 X142.953 Y50.567 E0.0257 F1350
G1 X143.391 Y50.449 E0.0514
G1 X143.803 Y50.257 E0.0771
G1 X144.175 Y49.997 E0.1028
G1 X144.497 Y49.675 E0.1284
G1 X144.757 Y49.303 E0.1541
G1 X144.949 Y48.892 E0.1798
G1 X145.067 Y48.453 E0.2055
G1 X145.106 Y48.000 E0.2312
G1 X145.067 Y47.547 E0.2569
