; G-Code generated by Simplify3D(R) Version 4.0.0
; Jun 8, 2020 at 1:12:54 AM
; Settings Summary
;   processName,Process1
;   applyToModels,tire_mold_inner
;   profileName,0.6mm (modified)
;   profileVersion,2020-05-28 20:54:20
;   baseProfile,Default (modified)
;   printMaterial,PLA
;   printQuality,Medium
;   printExtruders,
;   extruderName,Primary Extruder
;   extruderToolheadNumber,0
;   extruderDiameter,0.6
;   extruderAutoWidth,1
;   extruderWidth,0.72
;   extrusionMultiplier,1.05
;   extruderUseRetract,1
;   extruderRetractionDistance,3
;   extruderExtraRestartDistance,0
;   extruderRetractionZLift,0
;   extruderRetractionSpeed,1800
;   extruderUseCoasting,0
;   extruderCoastingDistance,0.2
;   extruderUseWipe,0
;   extruderWipeDistance,5
;   primaryExtruder,0
;   layerHeight,0.2
;   topSolidLayers,4
;   bottomSolidLayers,3
;   perimeterOutlines,3
;   printPerimetersInsideOut,1
;   startPointOption,2
;   startPointOriginX,0
;   startPointOriginY,0
;   sequentialIslands,0
;   spiralVaseMode,0
;   firstLayerHeightPercentage,80
;   firstLayerWidthPercentage,100
;   firstLayerUnderspeed,0.5
;   useRaft,0
;   raftExtruder,0
;   raftTopLayers,2
;   raftBaseLayers,0
;   raftOffset,10
;   raftSeparationDistance,0
;   raftTopInfill,100
;   aboveRaftSpeedMultiplier,0.3
;   useSkirt,1
;   skirtExtruder,0
;   skirtLayers,1
;   skirtOutlines,2
;   skirtOffset,4
;   usePrimePillar,0
;   primePillarExtruder,999
;   primePillarWidth,12
;   primePillarLocation,7
;   primePillarSpeedMultiplier,1
;   useOozeShield,0
;   oozeShieldExtruder,999
;   oozeShieldOffset,2
;   oozeShieldOutlines,1
;   oozeShieldSidewallShape,1
;   oozeShieldSidewallAngle,30
;   oozeShieldSpeedMultiplier,1
;   infillExtruder,0
;   internalInfillPattern,Fast Honeycomb
;   externalInfillPattern,Rectilinear
;   infillPercentage,20
;   outlineOverlapPercentage,15
;   infillExtrusionWidthPercentage,100
;   minInfillLength,5
;   infillLayerInterval,1
;   internalInfillAngles,0
;   overlapInternalInfillAngles,0
;   externalInfillAngles,45,-45
;   generateSupport,1
;   supportExtruder,0
;   supportInfillPercentage,70
;   supportExtraInflation,0
;   supportBaseLayers,0
;   denseSupportExtruder,0
;   denseSupportLayers,0
;   denseSupportInfillPercentage,70
;   supportLayerInterval,1
;   supportHorizontalPartOffset,0.3
;   supportUpperSeparationLayers,1
;   supportLowerSeparationLayers,1
;   supportType,0
;   supportGridSpacing,4
;   maxOverhangAngle,45
;   supportAngles,0
;   temperatureName,Primary Extruder,Bed
;   temperatureNumber,0,0
;   temperatureSetpointCount,1,1
;   temperatureSetpointLayers,1,1
;   temperatureSetpointTemperatures,200,60
;   temperatureStabilizeAtStartup,1,1
;   temperatureHeatedBed,0,1
;   temperatureRelayBetweenLayers,0,0
;   temperatureRelayBetweenLoops,0,0
;   fanLayers,1,2
;   fanSpeeds,0,100
;   blipFanToFullPower,0
;   adjustSpeedForCooling,1
;   minSpeedLayerTime,15
;   minCoolingSpeedSlowdown,20
;   increaseFanForCooling,0
;   minFanLayerTime,45
;   maxCoolingFanSpeed,100
;   increaseFanForBridging,0
;   bridgingFanSpeed,100
;   use5D,1
;   relativeEdistances,0
;   allowEaxisZeroing,1
;   independentExtruderAxes,0
;   includeM10123,0
;   stickySupport,1
;   applyToolheadOffsets,0
;   gcodeXoffset,0
;   gcodeYoffset,0
;   gcodeZoffset,0
;   overrideMachineDefinition,0
;   machineTypeOverride,0
;   strokeXoverride,200
;   strokeYoverride,200
;   strokeZoverride,200
;   originOffsetXoverride,0
;   originOffsetYoverride,0
;   originOffsetZoverride,0
;   homeXdirOverride,-1
;   homeYdirOverride,-1
;   homeZdirOverride,-1
;   flipXoverride,1
;   flipYoverride,-1
;   flipZoverride,1
;   toolheadOffsets,0,0|0,0|0,0|0,0|0,0|0,0
;   overrideFirmwareConfiguration,0
;   firmwareTypeOverride,RepRap (Marlin/Repetier/Sprinter)
;   GPXconfigOverride,r2
;   baudRateOverride,115200
;   overridePrinterModels,0
;   printerModelsOverride
;   startingGcode,G28 ; home all axes
;   layerChangeGcode,
;   retractionGcode,
;   toolChangeGcode,
;   endingGcode,G91;,G1 X5 Y5 Z2 -E20;,M104 S0 ; turn off extruder,M140 S0 ; turn off bed,M84 ; disable motors,M107; disable fan
;   exportFileFormat,gcode
;   celebration,0
;   celebrationSong,Random Song
;   postProcessing,
;   defaultSpeed,3600
;   outlineUnderspeed,0.5
;   solidInfillUnderspeed,0.8
;   supportUnderspeed,0.8
;   rapidXYspeed,4800
;   rapidZspeed,1000
;   minBridgingArea,50
;   bridgingExtraInflation,0
;   bridgingExtrusionMultiplier,1
;   bridgingSpeedMultiplier,1
;   useFixedBridgingAngle,0
;   fixedBridgingAngle,0
;   applyBridgingToPerimeters,0
;   filamentDiameters,1.75|1.75|1.75|1.75|1.75|1.75
;   filamentPricesPerKg,46|46|46|46|46|46
;   filamentDensities,1.25|1.25|1.25|1.25|1.25|1.25
;   useMinPrintHeight,0
;   minPrintHeight,0
;   useMaxPrintHeight,0
;   maxPrintHeight,0
;   useDiaphragm,0
;   diaphragmLayerInterval,20
;   robustSlicing,1
;   mergeAllIntoSolid,0
;   onlyRetractWhenCrossingOutline,1
;   retractBetweenLayers,1
;   useRetractionMinTravel,0
;   retractionMinTravel,3
;   retractWhileWiping,0
;   onlyWipeOutlines,1
;   avoidCrossingOutline,0
;   maxMovementDetourFactor,3
;   toolChangeRetractionDistance,12
;   toolChangeExtraRestartDistance,-0.5
;   toolChangeRetractionSpeed,600
;   externalThinWallType,0
;   internalThinWallType,2
;   thinWallAllowedOverlapPercentage,10
;   singleExtrusionMinLength,1
;   singleExtrusionMinPrintingWidthPercentage,50
;   singleExtrusionMaxPrintingWidthPercentage,200
;   singleExtrusionEndpointExtension,0.2
;   horizontalSizeCompensation,0
G90
M82
M106 S0
M140 S60
M190 S60
M104 S200 T0
M109 S200 T0
G28 ; home all axes
G92 E0
G1 E-3.0000 F1800
G1 Z0.160 F1000
; process Process1
; layer 1, Z = 0.160
T0
; tool H0.200 W0.720
; skirt
G1 X86.781 Y79.526 F4800
G1 E0.0000 F540
G92 E0
G1 X86.832 Y79.469 E0.0048 F1800
G1 X86.839 Y79.463 E0.0054
G1 X87.822 Y78.428 E0.0951
G1 X87.829 Y78.421 E0.0957
G1 X87.882 Y78.367 E0.1005
G1 X87.889 Y78.360 E0.1011
G1 X88.907 Y77.359 E0.1909
G1 X88.914 Y77.353 E0.1915
G1 X88.969 Y77.300 E0.1963
G1 X88.976 Y77.294 E0.1968
G1 X90.027 Y76.328 E0.2866
G1 X90.034 Y76.321 E0.2872
G1 X90.091 Y76.271 E0.2920
G1 X90.098 Y76.265 E0.2926
G1 X91.182 Y75.334 E0.3823
G1 X91.188 Y75.329 E0.3829
G1 X91.248 Y75.280 E0.3877
G1 X91.255 Y75.274 E0.3883
G1 X92.369 Y74.381 E0.4780
G1 X92.376 Y74.375 E0.4786
G1 X92.437 Y74.328 E0.4834
G1 X92.444 Y74.323 E0.4840
G1 X93.588 Y73.468 E0.5738
G1 X93.595 Y73.463 E0.5743
G1 X93.657 Y73.418 E0.5792
G1 X93.665 Y73.412 E0.5797
G1 X94.836 Y72.597 E0.6695
G1 X94.844 Y72.592 E0.6701
G1 X94.908 Y72.549 E0.6749
G1 X94.915 Y72.544 E0.6755
G1 X96.114 Y71.768 E0.7652
G1 X96.122 Y71.763 E0.7658
G1 X96.187 Y71.723 E0.7706
G1 X96.195 Y71.718 E0.7712
G1 X97.419 Y70.983 E0.8609
G1 X97.427 Y70.979 E0.8615
G1 X97.493 Y70.940 E0.8663
G1 X97.501 Y70.936 E0.8669
G1 X98.750 Y70.243 E0.9567
G1 X98.758 Y70.239 E0.9572
G1 X98.825 Y70.203 E0.9621
G1 X98.833 Y70.198 E0.9626
G1 X100.104 Y69.548 E1.0524
G1 X100.113 Y69.544 E1.0530
G1 X100.181 Y69.510 E1.0578
G1 X100.190 Y69.506 E1.0584
G1 X101.482 Y68.899 E1.1481
G1 X101.490 Y68.895 E1.1487
G1 X101.560 Y68.864 E1.1535
G1 X101.569 Y68.860 E1.1541
G1 X102.881 Y68.297 E1.2438
G1 X102.889 Y68.294 E1.2444
G1 X102.960 Y68.265 E1.2492
G1 X102.969 Y68.261 E1.2498
G1 X104.299 Y67.743 E1.3396
G1 X104.307 Y67.739 E1.3401
G1 X104.379 Y67.713 E1.3449
G1 X104.388 Y67.710 E1.3455
G1 X105.735 Y67.236 E1.4353
G1 X105.744 Y67.234 E1.4359
G1 X105.817 Y67.209 E1.4407
G1 X105.825 Y67.207 E1.4413
G1 X107.188 Y66.779 E1.5310
G1 X107.196 Y66.776 E1.5316
G1 X107.270 Y66.755 E1.5364
G1 X107.279 Y66.752 E1.5370
G1 X108.655 Y66.371 E1.6267
G1 X108.663 Y66.369 E1.6273
G1 X108.738 Y66.349 E1.6321
G1 X108.747 Y66.347 E1.6327
G1 X110.135 Y66.013 E1.7225
G1 X110.144 Y66.011 E1.7230
G1 X110.218 Y65.994 E1.7278
G1 X110.227 Y65.992 E1.7284
G1 X111.626 Y65.705 E1.8182
G1 X111.635 Y65.703 E1.8187
G1 X111.710 Y65.689 E1.8236
G1 X111.719 Y65.687 E1.8241
G1 X113.127 Y65.447 E1.9139
G1 X113.136 Y65.446 E1.9145
G1 X113.212 Y65.434 E1.9193
G1 X113.221 Y65.433 E1.9199
G1 X114.635 Y65.240 E2.0096
G1 X114.644 Y65.239 E2.0102
G1 X114.721 Y65.230 E2.0150
G1 X114.730 Y65.229 E2.0156
G1 X116.150 Y65.085 E2.1053
G1 X116.159 Y65.084 E2.1059
G1 X116.236 Y65.077 E2.1107
G1 X116.245 Y65.077 E2.1113
G1 X117.669 Y64.980 E2.2011
G1 X117.678 Y64.980 E2.2016
G1 X117.755 Y64.976 E2.2065
G1 X117.764 Y64.976 E2.2070
G1 X119.191 Y64.927 E2.2968
G1 X119.200 Y64.927 E2.2974
G1 X119.277 Y64.926 E2.3022
G1 X119.286 Y64.926 E2.3028
G1 X120.714 Y64.926 E2.3925
G1 X120.723 Y64.926 E2.3931
G1 X120.800 Y64.927 E2.3979
G1 X120.809 Y64.927 E2.3985
G1 X122.236 Y64.976 E2.4882
G1 X122.245 Y64.976 E2.4888
G1 X122.322 Y64.980 E2.4936
G1 X122.331 Y64.980 E2.4942
G1 X123.755 Y65.077 E2.5840
G1 X123.764 Y65.077 E2.5845
G1 X123.841 Y65.084 E2.5894
G1 X123.850 Y65.085 E2.5899
G1 X125.270 Y65.229 E2.6797
G1 X125.279 Y65.230 E2.6803
G1 X125.356 Y65.239 E2.6851
G1 X125.365 Y65.240 E2.6857
G1 X126.779 Y65.433 E2.7754
G1 X126.788 Y65.434 E2.7760
G1 X126.864 Y65.446 E2.7808
G1 X126.873 Y65.447 E2.7814
G1 X128.281 Y65.687 E2.8711
G1 X128.290 Y65.689 E2.8717
G1 X128.365 Y65.703 E2.8765
G1 X128.374 Y65.705 E2.8771
G1 X129.773 Y65.992 E2.9669
G1 X129.782 Y65.994 E2.9674
G1 X129.856 Y66.011 E2.9722
G1 X129.865 Y66.013 E2.9728
G1 X131.253 Y66.347 E3.0626
G1 X131.262 Y66.349 E3.0632
G1 X131.337 Y66.369 E3.0680
G1 X131.345 Y66.371 E3.0686
G1 X132.721 Y66.752 E3.1583
G1 X132.730 Y66.755 E3.1589
G1 X132.804 Y66.776 E3.1637
G1 X132.812 Y66.779 E3.1643
G1 X134.175 Y67.207 E3.2540
G1 X134.183 Y67.209 E3.2546
G1 X134.256 Y67.234 E3.2594
G1 X134.265 Y67.236 E3.2600
G1 X135.612 Y67.710 E3.3498
G1 X135.621 Y67.713 E3.3503
G1 X135.693 Y67.739 E3.3552
G1 X135.701 Y67.743 E3.3557
G1 X137.031 Y68.261 E3.4455
G1 X137.040 Y68.265 E3.4461
G1 X137.111 Y68.294 E3.4509
G1 X137.119 Y68.297 E3.4514
G1 X138.431 Y68.860 E3.5412
G1 X138.440 Y68.864 E3.5418
G1 X138.510 Y68.895 E3.5466
G1 X138.518 Y68.899 E3.5472
G1 X139.810 Y69.506 E3.6369
G1 X139.818 Y69.510 E3.6375
G1 X139.887 Y69.544 E3.6423
G1 X139.896 Y69.548 E3.6429
G1 X141.167 Y70.198 E3.7326
G1 X141.175 Y70.203 E3.7332
G1 X141.242 Y70.239 E3.7380
G1 X141.250 Y70.243 E3.7386
G1 X142.499 Y70.936 E3.8284
G1 X142.507 Y70.940 E3.8289
G1 X142.573 Y70.979 E3.8338
G1 X142.581 Y70.983 E3.8343
G1 X143.805 Y71.718 E3.9241
G1 X143.813 Y71.723 E3.9247
G1 X143.878 Y71.763 E3.9295
G1 X143.886 Y71.768 E3.9301
G1 X145.085 Y72.544 E4.0198
G1 X145.092 Y72.549 E4.0204
G1 X145.156 Y72.592 E4.0252
G1 X145.164 Y72.597 E4.0258
G1 X146.335 Y73.413 E4.1155
G1 X146.343 Y73.418 E4.1161
G1 X146.405 Y73.463 E4.1209
G1 X146.412 Y73.468 E4.1215
G1 X147.556 Y74.323 E4.2113
G1 X147.563 Y74.328 E4.2118
G1 X147.624 Y74.375 E4.2167
G1 X147.631 Y74.381 E4.2172
G1 X148.745 Y75.274 E4.3070
G1 X148.752 Y75.280 E4.3076
G1 X148.811 Y75.329 E4.3124
G1 X148.818 Y75.334 E4.3130
G1 X149.902 Y76.265 E4.4027
G1 X149.909 Y76.271 E4.4033
G1 X149.966 Y76.322 E4.4081
G1 X149.973 Y76.328 E4.4087
G1 X151.024 Y77.294 E4.4984
G1 X151.031 Y77.300 E4.4990
G1 X151.086 Y77.353 E4.5038
G1 X151.093 Y77.359 E4.5044
G1 X152.111 Y78.360 E4.5942
G1 X152.118 Y78.367 E4.5947
G1 X152.171 Y78.421 E4.5995
G1 X152.178 Y78.428 E4.6001
G1 X153.161 Y79.463 E4.6899
G1 X153.168 Y79.469 E4.6905
G1 X153.220 Y79.526 E4.6953
G1 X153.226 Y79.533 E4.6959
G1 X154.174 Y80.600 E4.7856
G1 X154.180 Y80.607 E4.7862
G1 X154.230 Y80.665 E4.7910
G1 X154.236 Y80.672 E4.7916
G1 X155.147 Y81.771 E4.8813
G1 X155.153 Y81.778 E4.8819
G1 X155.201 Y81.838 E4.8867
G1 X155.207 Y81.845 E4.8873
G1 X156.081 Y82.974 E4.9771
G1 X156.086 Y82.982 E4.9776
G1 X156.132 Y83.043 E4.9825
G1 X156.137 Y83.050 E4.9830
G1 X156.973 Y84.208 E5.0728
G1 X156.978 Y84.216 E5.0733
G1 X157.022 Y84.279 E5.0782
G1 X157.027 Y84.286 E5.0787
G1 X157.823 Y85.472 E5.1685
G1 X157.828 Y85.479 E5.1691
G1 X157.870 Y85.544 E5.1739
G1 X157.874 Y85.551 E5.1745
G1 X158.630 Y86.763 E5.2642
G1 X158.635 Y86.771 E5.2648
G1 X158.674 Y86.837 E5.2696
G1 X158.679 Y86.845 E5.2702
G1 X159.392 Y88.081 E5.3599
G1 X159.397 Y88.089 E5.3605
G1 X159.434 Y88.156 E5.3653
G1 X159.438 Y88.164 E5.3659
G1 X160.110 Y89.424 E5.4557
G1 X160.114 Y89.432 E5.4562
G1 X160.149 Y89.500 E5.4611
G1 X160.154 Y89.509 E5.4616
G1 X160.782 Y90.791 E5.5514
G1 X160.786 Y90.799 E5.5520
G1 X160.819 Y90.868 E5.5568
G1 X160.823 Y90.876 E5.5574
G1 X161.408 Y92.179 E5.6471
G1 X161.411 Y92.187 E5.6477
G1 X161.442 Y92.258 E5.6525
G1 X161.445 Y92.266 E5.6531
G1 X161.986 Y93.588 E5.7428
G1 X161.990 Y93.596 E5.7434
G1 X162.017 Y93.668 E5.7482
G1 X162.021 Y93.676 E5.7488
G1 X162.516 Y95.015 E5.8386
G1 X162.520 Y95.024 E5.8391
G1 X162.545 Y95.096 E5.8440
G1 X162.548 Y95.105 E5.8445
G1 X162.998 Y96.459 E5.9343
G1 X163.001 Y96.468 E5.9349
G1 X163.024 Y96.541 E5.9397
G1 X163.027 Y96.550 E5.9403
G1 X163.431 Y97.919 E6.0300
G1 X163.434 Y97.928 E6.0306
G1 X163.454 Y98.002 E6.0354
G1 X163.456 Y98.011 E6.0360
G1 X163.814 Y99.393 E6.1257
G1 X163.817 Y99.402 E6.1263
G1 X163.835 Y99.477 E6.1311
G1 X163.837 Y99.485 E6.1317
G1 X164.148 Y100.879 E6.2215
G1 X164.149 Y100.888 E6.2220
G1 X164.165 Y100.963 E6.2269
G1 X164.167 Y100.972 E6.2274
G1 X164.430 Y102.375 E6.3172
G1 X164.432 Y102.384 E6.3178
G1 X164.445 Y102.460 E6.3226
G1 X164.446 Y102.469 E6.3232
G1 X164.663 Y103.880 E6.4129
G1 X164.664 Y103.889 E6.4135
G1 X164.674 Y103.966 E6.4183
G1 X164.675 Y103.974 E6.4189
G1 X164.844 Y105.392 E6.5086
G1 X164.845 Y105.401 E6.5092
G1 X164.853 Y105.477 E6.5140
G1 X164.853 Y105.486 E6.5146
G1 X164.974 Y106.909 E6.6044
G1 X164.975 Y106.918 E6.6049
G1 X164.980 Y106.995 E6.6098
G1 X164.980 Y107.004 E6.6103
G1 X165.053 Y108.430 E6.7001
G1 X165.053 Y108.439 E6.7007
G1 X165.056 Y108.516 E6.7055
G1 X165.056 Y108.525 E6.7060
G1 X165.080 Y109.953 E6.7958
G1 X165.080 Y109.962 E6.7964
G1 X165.080 Y110.038 E6.8012
G1 X165.080 Y110.047 E6.8018
G1 X165.056 Y111.475 E6.8915
G1 X165.056 Y111.484 E6.8921
G1 X165.053 Y111.561 E6.8969
G1 X165.053 Y111.570 E6.8975
G1 X164.980 Y112.996 E6.9872
G1 X164.980 Y113.005 E6.9878
G1 X164.975 Y113.082 E6.9926
G1 X164.974 Y113.091 E6.9932
G1 X164.853 Y114.514 E7.0830
G1 X164.853 Y114.523 E7.0836
G1 X164.845 Y114.599 E7.0884
G1 X164.844 Y114.608 E7.0889
G1 X164.675 Y116.026 E7.1787
G1 X164.674 Y116.034 E7.1793
G1 X164.664 Y116.111 E7.1841
G1 X164.663 Y116.120 E7.1847
G1 X164.446 Y117.531 E7.2744
G1 X164.445 Y117.540 E7.2750
G1 X164.432 Y117.616 E7.2798
G1 X164.430 Y117.625 E7.2804
G1 X164.167 Y119.028 E7.3701
G1 X164.165 Y119.037 E7.3707
G1 X164.149 Y119.112 E7.3755
G1 X164.148 Y119.121 E7.3761
G1 X163.837 Y120.515 E7.4659
G1 X163.835 Y120.523 E7.4664
G1 X163.817 Y120.598 E7.4713
G1 X163.814 Y120.607 E7.4718
G1 X163.456 Y121.989 E7.5616
G1 X163.454 Y121.998 E7.5622
G1 X163.434 Y122.072 E7.5670
G1 X163.431 Y122.080 E7.5676
G1 X163.027 Y123.450 E7.6573
G1 X163.024 Y123.459 E7.6579
G1 X163.001 Y123.532 E7.6627
G1 X162.998 Y123.541 E7.6633
G1 X162.548 Y124.895 E7.7530
G1 X162.545 Y124.904 E7.7536
G1 X162.520 Y124.976 E7.7584
G1 X162.516 Y124.985 E7.7590
G1 X162.021 Y126.324 E7.8488
G1 X162.017 Y126.332 E7.8493
G1 X161.990 Y126.404 E7.8542
G1 X161.986 Y126.412 E7.8547
G1 X161.445 Y127.734 E7.9445
G1 X161.442 Y127.742 E7.9451
G1 X161.411 Y127.813 E7.9499
G1 X161.408 Y127.821 E7.9505
G1 X160.823 Y129.124 E8.0402
G1 X160.819 Y129.132 E8.0408
G1 X160.786 Y129.201 E8.0456
G1 X160.782 Y129.209 E8.0462
G1 X160.154 Y130.491 E8.1359
G1 X160.149 Y130.499 E8.1365
G1 X160.114 Y130.568 E8.1413
G1 X160.110 Y130.576 E8.1419
G1 X159.438 Y131.836 E8.2317
G1 X159.434 Y131.844 E8.2322
G1 X159.397 Y131.911 E8.2371
G1 X159.392 Y131.919 E8.2376
G1 X158.679 Y133.155 E8.3274
G1 X158.674 Y133.163 E8.3280
G1 X158.634 Y133.229 E8.3328
G1 X158.630 Y133.237 E8.3333
G1 X157.874 Y134.448 E8.4231
G1 X157.870 Y134.456 E8.4237
G1 X157.828 Y134.521 E8.4285
G1 X157.823 Y134.528 E8.4291
G1 X157.027 Y135.714 E8.5188
G1 X157.022 Y135.721 E8.5194
G1 X156.978 Y135.784 E8.5242
G1 X156.973 Y135.792 E8.5248
G1 X156.137 Y136.950 E8.6146
G1 X156.132 Y136.957 E8.6151
G1 X156.086 Y137.018 E8.6199
G1 X156.081 Y137.026 E8.6205
G1 X155.207 Y138.155 E8.7103
