; G-Code generated by Simplify3D(R) Version 4.0.0
; Jun 8, 2020 at 2:43:32 PM
; Settings Summary
;   processName,Process1
;   applyToModels,tire_mold_inner
;   profileName,0.6mm
;   profileVersion,2020-05-28 20:54:20
;   baseProfile,Default (modified)
;   printMaterial,PLA
;   printQuality,Medium
;   printExtruders,
;   extruderName,Primary Extruder
;   extruderToolheadNumber,0
;   extruderDiameter,0.6
;   extruderAutoWidth,0
;   extruderWidth,0.68
;   extrusionMultiplier,1.1
;   extruderUseRetract,1
;   extruderRetractionDistance,5
;   extruderExtraRestartDistance,0
;   extruderRetractionZLift,0
;   extruderRetractionSpeed,1800
;   extruderUseCoasting,0
;   extruderCoastingDistance,0.2
;   extruderUseWipe,0
;   extruderWipeDistance,5
;   primaryExtruder,0
;   layerHeight,0.2
;   topSolidLayers,4
;   bottomSolidLayers,3
;   perimeterOutlines,3
;   printPerimetersInsideOut,1
;   startPointOption,2
;   startPointOriginX,0
;   startPointOriginY,0
;   sequentialIslands,0
;   spiralVaseMode,0
;   firstLayerHeightPercentage,80
;   firstLayerWidthPercentage,100
;   firstLayerUnderspeed,0.5
;   useRaft,0
;   raftExtruder,0
;   raftTopLayers,2
;   raftBaseLayers,0
;   raftOffset,10
;   raftSeparationDistance,0
;   raftTopInfill,100
;   aboveRaftSpeedMultiplier,0.3
;   useSkirt,1
;   skirtExtruder,0
;   skirtLayers,1
;   skirtOutlines,2
;   skirtOffset,4
;   usePrimePillar,0
;   primePillarExtruder,999
;   primePillarWidth,12
;   primePillarLocation,7
;   primePillarSpeedMultiplier,1
;   useOozeShield,0
;   oozeShieldExtruder,999
;   oozeShieldOffset,2
;   oozeShieldOutlines,1
;   oozeShieldSidewallShape,1
;   oozeShieldSidewallAngle,30
;   oozeShieldSpeedMultiplier,1
;   infillExtruder,0
;   internalInfillPattern,Fast Honeycomb
;   externalInfillPattern,Rectilinear
;   infillPercentage,15
;   outlineOverlapPercentage,15
;   infillExtrusionWidthPercentage,100
;   minInfillLength,5
;   infillLayerInterval,1
;   internalInfillAngles,0
;   overlapInternalInfillAngles,0
;   externalInfillAngles,45,-45
;   generateSupport,1
;   supportExtruder,0
;   supportInfillPercentage,50
;   supportExtraInflation,0
;   supportBaseLayers,0
;   denseSupportExtruder,0
;   denseSupportLayers,0
;   denseSupportInfillPercentage,70
;   supportLayerInterval,1
;   supportHorizontalPartOffset,0.3
;   supportUpperSeparationLayers,1
;   supportLowerSeparationLayers,1
;   supportType,0
;   supportGridSpacing,4
;   maxOverhangAngle,45
;   supportAngles,0
;   temperatureName,Primary Extruder,Bed
;   temperatureNumber,0,0
;   temperatureSetpointCount,1,1
;   temperatureSetpointLayers,1,1
;   temperatureSetpointTemperatures,215,60
;   temperatureStabilizeAtStartup,1,1
;   temperatureHeatedBed,0,1
;   temperatureRelayBetweenLayers,0,0
;   temperatureRelayBetweenLoops,0,0
;   fanLayers,1,2
;   fanSpeeds,0,100
;   blipFanToFullPower,0
;   adjustSpeedForCooling,1
;   minSpeedLayerTime,15
;   minCoolingSpeedSlowdown,20
;   increaseFanForCooling,0
;   minFanLayerTime,45
;   maxCoolingFanSpeed,100
;   increaseFanForBridging,0
;   bridgingFanSpeed,100
;   use5D,1
;   relativeEdistances,0
;   allowEaxisZeroing,1
;   independentExtruderAxes,0
;   includeM10123,0
;   stickySupport,1
;   applyToolheadOffsets,0
;   gcodeXoffset,0
;   gcodeYoffset,0
;   gcodeZoffset,0
;   overrideMachineDefinition,0
;   machineTypeOverride,0
;   strokeXoverride,200
;   strokeYoverride,200
;   strokeZoverride,200
;   originOffsetXoverride,0
;   originOffsetYoverride,0
;   originOffsetZoverride,0
;   homeXdirOverride,-1
;   homeYdirOverride,-1
;   homeZdirOverride,-1
;   flipXoverride,1
;   flipYoverride,-1
;   flipZoverride,1
;   toolheadOffsets,0,0|0,0|0,0|0,0|0,0|0,0
;   overrideFirmwareConfiguration,0
;   firmwareTypeOverride,RepRap (Marlin/Repetier/Sprinter)
;   GPXconfigOverride,r2
;   baudRateOverride,115200
;   overridePrinterModels,0
;   printerModelsOverride
;   startingGcode,G28 ; home all axes
;   layerChangeGcode,
;   retractionGcode,
;   toolChangeGcode,
;   endingGcode,G91;,G1 X5 Y5 Z2 -E20;,M104 S0 ; turn off extruder,M140 S0 ; turn off bed,M84 ; disable motors,M107; disable fan
;   exportFileFormat,gcode
;   celebration,0
;   celebrationSong,Random Song
;   postProcessing,
;   defaultSpeed,3600
;   outlineUnderspeed,0.5
;   solidInfillUnderspeed,0.8
;   supportUnderspeed,0.8
;   rapidXYspeed,4800
;   rapidZspeed,1000
;   minBridgingArea,50
;   bridgingExtraInflation,0
;   bridgingExtrusionMultiplier,1
;   bridgingSpeedMultiplier,1
;   useFixedBridgingAngle,0
;   fixedBridgingAngle,0
;   applyBridgingToPerimeters,0
;   filamentDiameters,1.75|1.75|1.75|1.75|1.75|1.75
;   filamentPricesPerKg,46|46|46|46|46|46
;   filamentDensities,1.25|1.25|1.25|1.25|1.25|1.25
;   useMinPrintHeight,0
;   minPrintHeight,0
;   useMaxPrintHeight,0
;   maxPrintHeight,0
;   useDiaphragm,0
;   diaphragmLayerInterval,20
;   robustSlicing,1
;   mergeAllIntoSolid,0
;   onlyRetractWhenCrossingOutline,1
;   retractBetweenLayers,1
;   useRetractionMinTravel,0
;   retractionMinTravel,3
;   retractWhileWiping,0
;   onlyWipeOutlines,1
;   avoidCrossingOutline,0
;   maxMovementDetourFactor,3
;   toolChangeRetractionDistance,12
;   toolChangeExtraRestartDistance,-0.5
;   toolChangeRetractionSpeed,600
;   externalThinWallType,0
;   internalThinWallType,2
;   thinWallAllowedOverlapPercentage,10
;   singleExtrusionMinLength,1
;   singleExtrusionMinPrintingWidthPercentage,50
;   singleExtrusionMaxPrintingWidthPercentage,200
;   singleExtrusionEndpointExtension,0.2
;   horizontalSizeCompensation,0
G90
M82
M106 S0
M140 S60
M190 S60
M104 S215 T0
M109 S215 T0
G28 ; home all axes
G92 E0
G1 E-5.0000 F1800
G1 Z0.160 F1000
; process Process1
; layer 1, Z = 0.160
T0
; tool H0.200 W0.680
; skirt
G1 X92.397 Y84.588 F4800
G1 E0.0000 F540
G92 E0
G1 X92.406 Y84.578 E0.0008 F1800
G1 X92.483 Y84.493 E0.0080
G1 X92.492 Y84.484 E0.0088
G1 X93.322 Y83.618 E0.0834
G1 X93.328 Y83.612 E0.0839
G1 X93.382 Y83.557 E0.0887
G1 X93.388 Y83.551 E0.0892
G1 X94.247 Y82.714 E0.1638
G1 X94.256 Y82.705 E0.1646
G1 X94.340 Y82.627 E0.1718
G1 X94.350 Y82.618 E0.1726
G1 X96.093 Y81.084 E0.3170
G1 X96.103 Y81.075 E0.3178
G1 X96.191 Y81.002 E0.3249
G1 X96.201 Y80.993 E0.3258
G1 X97.156 Y80.236 E0.4015
G1 X97.166 Y80.228 E0.4024
G1 X97.258 Y80.159 E0.4095
G1 X97.268 Y80.151 E0.4103
G1 X99.174 Y78.791 E0.5559
G1 X99.188 Y78.781 E0.5570
G1 X99.316 Y78.696 E0.5665
G1 X99.330 Y78.687 E0.5676
G1 X101.324 Y77.459 E0.7132
G1 X101.335 Y77.453 E0.7140
G1 X101.434 Y77.395 E0.7212
G1 X101.446 Y77.389 E0.7220
G1 X102.514 Y76.803 E0.7978
G1 X102.526 Y76.797 E0.7986
G1 X102.628 Y76.745 E0.8057
G1 X102.640 Y76.739 E0.8065
G1 X104.748 Y75.720 E0.9522
G1 X104.763 Y75.713 E0.9532
G1 X104.903 Y75.651 E0.9628
G1 X104.919 Y75.644 E0.9638
G1 X107.092 Y74.771 E1.1095
G1 X107.104 Y74.767 E1.1103
G1 X107.212 Y74.726 E1.1174
G1 X107.224 Y74.722 E1.1182
G1 X108.376 Y74.326 E1.1940
G1 X108.389 Y74.322 E1.1948
G1 X108.498 Y74.287 E1.2020
G1 X108.511 Y74.283 E1.2028
G1 X110.742 Y73.641 E1.3472
G1 X110.755 Y73.638 E1.3480
G1 X110.866 Y73.609 E1.3552
G1 X110.878 Y73.605 E1.3560
G1 X112.046 Y73.333 E1.4306
G1 X112.055 Y73.331 E1.4311
G1 X112.130 Y73.315 E1.4359
G1 X112.138 Y73.313 E1.4364
G1 X113.315 Y73.080 E1.5110
G1 X113.328 Y73.078 E1.5118
G1 X113.441 Y73.058 E1.5190
G1 X113.454 Y73.056 E1.5198
G1 X115.771 Y72.719 E1.6654
G1 X115.788 Y72.717 E1.6665
G1 X115.940 Y72.700 E1.6760
G1 X115.957 Y72.699 E1.6771
G1 X118.292 Y72.520 E1.8227
G1 X118.305 Y72.519 E1.8235
G1 X118.419 Y72.513 E1.8306
G1 X118.432 Y72.513 E1.8314
G1 X119.631 Y72.482 E1.9060
G1 X119.640 Y72.482 E1.9066
G1 X119.717 Y72.481 E1.9113
G1 X119.725 Y72.481 E1.9119
G1 X120.905 Y72.491 E1.9853
G1 X120.914 Y72.491 E1.9858
G1 X120.991 Y72.493 E1.9906
G1 X120.999 Y72.493 E1.9911
G1 X122.198 Y72.544 E2.0657
G1 X122.211 Y72.545 E2.0666
G1 X122.325 Y72.553 E2.0737
G1 X122.338 Y72.554 E2.0745
G1 X124.650 Y72.770 E2.2189
G1 X124.663 Y72.771 E2.2197
G1 X124.777 Y72.785 E2.2269
G1 X124.790 Y72.787 E2.2277
G1 X125.996 Y72.962 E2.3035
G1 X126.009 Y72.964 E2.3043
G1 X126.122 Y72.983 E2.3114
G1 X126.135 Y72.986 E2.3122
G1 X128.413 Y73.436 E2.4567
G1 X128.426 Y73.439 E2.4575
G1 X128.538 Y73.464 E2.4646
G1 X128.550 Y73.467 E2.4654
G1 X129.732 Y73.764 E2.5412
G1 X129.745 Y73.767 E2.5420
G1 X129.856 Y73.798 E2.5492
G1 X129.868 Y73.802 E2.5500
G1 X132.088 Y74.482 E2.6944
G1 X132.101 Y74.485 E2.6952
G1 X132.210 Y74.522 E2.7024
G1 X132.222 Y74.526 E2.7032
G1 X133.368 Y74.942 E2.7790
G1 X133.380 Y74.946 E2.7798
G1 X133.487 Y74.988 E2.7869
G1 X133.499 Y74.993 E2.7877
G1 X135.656 Y75.903 E2.9333
G1 X135.672 Y75.910 E2.9344
G1 X135.811 Y75.974 E2.9440
G1 X135.827 Y75.982 E2.9450
G1 X137.934 Y77.044 E3.0918
G1 X137.950 Y77.052 E3.0929
G1 X138.084 Y77.126 E3.1024
G1 X138.099 Y77.134 E3.1035
G1 X140.113 Y78.327 E3.2491
G1 X140.124 Y78.334 E3.2499
G1 X140.222 Y78.395 E3.2571
G1 X140.233 Y78.402 E3.2579
G1 X141.232 Y79.065 E3.3325
G1 X141.239 Y79.070 E3.3330
G1 X141.302 Y79.114 E3.3378
G1 X141.309 Y79.119 E3.3383
G1 X142.286 Y79.815 E3.4129
G1 X142.296 Y79.823 E3.4137
G1 X142.388 Y79.892 E3.4209
G1 X142.398 Y79.900 E3.4217
G1 X144.218 Y81.343 E3.5661
G1 X144.228 Y81.352 E3.5669
G1 X144.316 Y81.425 E3.5741
G1 X144.326 Y81.434 E3.5749
G1 X145.240 Y82.239 E3.6507
G1 X145.250 Y82.247 E3.6515
G1 X145.334 Y82.326 E3.6586
G1 X145.344 Y82.334 E3.6594
G1 X147.020 Y83.969 E3.8051
G1 X147.033 Y83.981 E3.8061
G1 X147.139 Y84.092 E3.8157
G1 X147.150 Y84.104 E3.8167
G1 X148.712 Y85.848 E3.9624
G1 X148.721 Y85.858 E3.9632
G1 X148.795 Y85.946 E3.9703
G1 X148.803 Y85.956 E3.9711
G1 X149.557 Y86.889 E4.0457
G1 X149.562 Y86.896 E4.0463
G1 X149.610 Y86.956 E4.0510
G1 X149.615 Y86.963 E4.0516
G1 X150.336 Y87.921 E4.1262
G1 X150.344 Y87.932 E4.1270
G1 X150.411 Y88.025 E4.1341
G1 X150.418 Y88.036 E4.1349
G1 X151.729 Y89.975 E4.2805
G1 X151.739 Y89.990 E4.2816
G1 X151.820 Y90.120 E4.2912
G1 X151.829 Y90.134 E4.2922
G1 X153.006 Y92.159 E4.4378
G1 X153.012 Y92.170 E4.4386
G1 X153.067 Y92.271 E4.4458
G1 X153.073 Y92.282 E4.4466
G1 X153.623 Y93.349 E4.5212
G1 X153.626 Y93.356 E4.5218
G1 X153.660 Y93.425 E4.5265
G1 X153.664 Y93.433 E4.5271
G1 X154.177 Y94.517 E4.6017
G1 X154.182 Y94.529 E4.6025
G1 X154.229 Y94.634 E4.6096
G1 X154.234 Y94.646 E4.6104
G1 X155.125 Y96.811 E4.7560
G1 X155.132 Y96.827 E4.7571
G1 X155.185 Y96.970 E4.7666
G1 X155.191 Y96.987 E4.7677
G1 X155.933 Y99.207 E4.9133
G1 X155.937 Y99.220 E4.9141
G1 X155.971 Y99.330 E4.9213
G1 X155.975 Y99.342 E4.9221
G1 X156.302 Y100.516 E4.9979
G1 X156.305 Y100.528 E4.9987
G1 X156.333 Y100.640 E5.0058
G1 X156.336 Y100.652 E5.0066
G1 X156.845 Y102.918 E5.1511
G1 X156.847 Y102.931 E5.1519
G1 X156.870 Y103.044 E5.1590
G1 X156.872 Y103.056 E5.1598
G1 X157.075 Y104.238 E5.2344
G1 X157.076 Y104.247 E5.2350
G1 X157.088 Y104.323 E5.2397
G1 X157.089 Y104.331 E5.2403
G1 X157.252 Y105.520 E5.3149
G1 X157.253 Y105.533 E5.3157
G1 X157.266 Y105.647 E5.3228
G1 X157.267 Y105.660 E5.3236
G1 X157.466 Y107.992 E5.4693
G1 X157.467 Y108.010 E5.4703
G1 X157.475 Y108.163 E5.4799
G1 X157.476 Y108.180 E5.4809
G1 X157.516 Y110.521 E5.6266
G1 X157.516 Y110.534 E5.6274
G1 X157.515 Y110.649 E5.6345
G1 X157.514 Y110.662 E5.6353
G1 X157.473 Y111.880 E5.7111
G1 X157.473 Y111.893 E5.7119
G1 X157.466 Y112.007 E5.7191
G1 X157.465 Y112.020 E5.7199
G1 X157.266 Y114.353 E5.8655
G1 X157.265 Y114.370 E5.8666
G1 X157.246 Y114.522 E5.8761
G1 X157.244 Y114.540 E5.8772
G1 X156.888 Y116.854 E6.0228
G1 X156.886 Y116.866 E6.0236
G1 X156.865 Y116.979 E6.0307
G1 X156.863 Y116.992 E6.0315
G1 X156.620 Y118.167 E6.1062
G1 X156.618 Y118.175 E6.1067
G1 X156.602 Y118.250 E6.1114
G1 X156.600 Y118.259 E6.1120
G1 X156.317 Y119.424 E6.1866
G1 X156.314 Y119.437 E6.1874
G1 X156.284 Y119.548 E6.1946
G1 X156.281 Y119.560 E6.1954
G1 X155.620 Y121.786 E6.3398
G1 X155.616 Y121.799 E6.3406
G1 X155.581 Y121.908 E6.3477
G1 X155.576 Y121.920 E6.3485
G1 X155.170 Y123.069 E6.4243
G1 X155.166 Y123.082 E6.4251
G1 X155.125 Y123.189 E6.4323
G1 X155.120 Y123.201 E6.4331
G1 X154.236 Y125.348 E6.5775
G1 X154.231 Y125.360 E6.5783
G1 X154.185 Y125.465 E6.5855
G1 X154.179 Y125.477 E6.5863
G1 X153.659 Y126.579 E6.6621
G1 X153.653 Y126.591 E6.6629
G1 X153.601 Y126.693 E6.6700
G1 X153.595 Y126.705 E6.6708
G1 X152.498 Y128.751 E6.8153
G1 X152.491 Y128.762 E6.8161
G1 X152.434 Y128.862 E6.8232
G1 X152.428 Y128.873 E6.8240
G1 X151.798 Y129.916 E6.8998
G1 X151.791 Y129.927 E6.9006
G1 X151.729 Y130.024 E6.9078
G1 X151.722 Y130.035 E6.9086
G1 X150.422 Y131.959 E7.0530
G1 X150.414 Y131.970 E7.0538
G1 X150.348 Y132.063 E7.0610
G1 X150.340 Y132.074 E7.0618
G1 X149.607 Y133.047 E7.1376
G1 X149.599 Y133.058 E7.1384
G1 X149.528 Y133.148 E7.1455
G1 X149.520 Y133.158 E7.1463
G1 X148.018 Y134.954 E7.2919
G1 X148.007 Y134.967 E7.2930
G1 X147.905 Y135.081 E7.3025
G1 X147.893 Y135.094 E7.3036
G1 X146.273 Y136.785 E7.4492
G1 X146.264 Y136.794 E7.4500
G1 X146.182 Y136.875 E7.4572
G1 X146.173 Y136.884 E7.4580
G1 X145.286 Y137.720 E7.5338
G1 X145.277 Y137.728 E7.5346
G1 X145.191 Y137.805 E7.5418
G1 X145.181 Y137.814 E7.5426
G1 X143.412 Y139.318 E7.6870
G1 X143.403 Y139.326 E7.6878
G1 X143.313 Y139.398 E7.6949
G1 X143.303 Y139.406 E7.6957
G1 X142.336 Y140.148 E7.7715
G1 X142.325 Y140.155 E7.7723
G1 X142.232 Y140.223 E7.7795
G1 X142.222 Y140.231 E7.7803
G1 X140.309 Y141.547 E7.9247
G1 X140.298 Y141.555 E7.9255
G1 X140.202 Y141.617 E7.9327
G1 X140.191 Y141.624 E7.9335
G1 X139.153 Y142.263 E8.0093
G1 X139.142 Y142.270 E8.0101
G1 X139.043 Y142.328 E8.0172
G1 X139.032 Y142.334 E8.0180
G1 X136.978 Y143.459 E8.1637
G1 X136.963 Y143.467 E8.1647
G1 X136.826 Y143.536 E8.1743
G1 X136.810 Y143.543 E8.1753
G1 X134.685 Y144.526 E8.3210
G1 X134.674 Y144.531 E8.3218
G1 X134.568 Y144.577 E8.3289
G1 X134.556 Y144.582 E8.3297
G1 X133.425 Y145.036 E8.4055
G1 X133.413 Y145.041 E8.4063
G1 X133.306 Y145.081 E8.4135
G1 X133.293 Y145.085 E8.4143
G1 X131.097 Y145.840 E8.5587
G1 X131.085 Y145.844 E8.5595
G1 X130.976 Y145.879 E8.5667
G1 X130.963 Y145.883 E8.5675
G1 X129.811 Y146.215 E8.6421
G1 X129.802 Y146.217 E8.6426
G1 X129.728 Y146.237 E8.6474
G1 X129.720 Y146.239 E8.6479
G1 X128.557 Y146.532 E8.7225
G1 X128.544 Y146.535 E8.7233
G1 X128.432 Y146.560 E8.7305
G1 X128.419 Y146.562 E8.7313
G1 X126.122 Y147.017 E8.8769
G1 X126.105 Y147.020 E8.8780
G1 X125.954 Y147.045 E8.8875
G1 X125.937 Y147.047 E8.8886
G1 X123.615 Y147.345 E9.0342
G1 X123.602 Y147.346 E9.0350
G1 X123.488 Y147.358 E9.0421
G1 X123.475 Y147.359 E9.0429
G1 X122.260 Y147.452 E9.1187
G1 X122.247 Y147.453 E9.1195
G1 X122.132 Y147.459 E9.1267
G1 X122.119 Y147.459 E9.1275
G1 X119.778 Y147.519 E9.2731
G1 X119.761 Y147.519 E9.2742
G1 X119.608 Y147.518 E9.2837
G1 X119.591 Y147.518 E9.2848
G1 X117.252 Y147.418 E9.4304
G1 X117.239 Y147.418 E9.4312
G1 X117.124 Y147.410 E9.4384
G1 X117.111 Y147.409 E9.4392
G1 X115.898 Y147.295 E9.5150
G1 X115.885 Y147.294 E9.5158
G1 X115.771 Y147.280 E9.5229
G1 X115.758 Y147.279 E9.5237
G1 X113.460 Y146.945 E9.6682
G1 X113.447 Y146.943 E9.6690
G1 X113.334 Y146.923 E9.6761
G1 X113.321 Y146.921 E9.6769
G1 X112.126 Y146.685 E9.7527
G1 X112.113 Y146.682 E9.7535
G1 X112.001 Y146.657 E9.7607
G1 X111.988 Y146.654 E9.7615
G1 X109.736 Y146.088 E9.9059
G1 X109.723 Y146.085 E9.9067
G1 X109.613 Y146.054 E9.9139
G1 X109.600 Y146.050 E9.9147
G1 X108.453 Y145.699 E9.9893
G1 X108.445 Y145.696 E9.9898
G1 X108.372 Y145.673 E9.9946
G1 X108.364 Y145.670 E9.9951
G1 X107.230 Y145.280 E10.0697
G1 X107.217 Y145.276 E10.0705
G1 X107.110 Y145.236 E10.0777
G1 X107.098 Y145.231 E10.0785
G1 X104.925 Y144.358 E10.2241
G1 X104.909 Y144.351 E10.2252
G1 X104.769 Y144.290 E10.2347
G1 X104.753 Y144.282 E10.2358
G1 X102.628 Y143.256 E10.3826
G1 X102.612 Y143.248 E10.3836
G1 X102.477 Y143.177 E10.3932
G1 X102.462 Y143.168 E10.3943
G1 X100.427 Y142.009 E10.5399
G1 X100.416 Y142.003 E10.5407
G1 X100.318 Y141.943 E10.5478
G1 X100.307 Y141.937 E10.5486
G1 X99.280 Y141.280 E10.6244
G1 X99.269 Y141.273 E10.6252
G1 X99.174 Y141.209 E10.6324
G1 X99.163 Y141.201 E10.6332
G1 X97.273 Y139.853 E10.7776
G1 X97.263 Y139.845 E10.7784
G1 X97.171 Y139.776 E10.7856
G1 X97.161 Y139.768 E10.7864
